images/icons/framestar.svg

<svg width="124" height="20" viewBox="0 0 124 20" fill="none" xmlns="http://www.w3.org/2000/svg">
<path d="M10.7212 2.49664C10.4 1.94318 9.60079 1.94318 9.27964 2.49664L7.01793 6.39439C6.85928 6.6678 6.58507 6.85437 6.27252 6.90158L2.03393 7.54177C1.32203 7.64929 1.07231 8.54813 1.62673 9.00747L4.78431 11.6235C5.07659 11.8656 5.21402 12.2476 5.14302 12.6205L4.31705 16.9581C4.18648 17.6438 4.9063 18.1765 5.52393 17.8513L9.5151 15.7498C9.81888 15.5899 10.182 15.5899 10.4857 15.7498L14.4769 17.8513C15.0945 18.1765 15.8144 17.6438 15.6838 16.9581L14.8578 12.6205C14.7868 12.2476 14.9242 11.8656 15.2165 11.6235L18.3741 9.00747C18.9285 8.54814 18.6788 7.64929 17.9669 7.54177L13.7283 6.90158C13.4158 6.85437 13.1416 6.6678 12.9829 6.3944L10.7212 2.49664Z" fill="#299764"/>
<path d="M36.7212 2.49664C36.4 1.94318 35.6008 1.94318 35.2796 2.49664L33.0179 6.39439C32.8593 6.6678 32.5851 6.85437 32.2725 6.90158L28.0339 7.54177C27.322 7.64929 27.0723 8.54813 27.6267 9.00747L30.7843 11.6235C31.0766 11.8656 31.214 12.2476 31.143 12.6205L30.317 16.9581C30.1865 17.6438 30.9063 18.1765 31.5239 17.8513L35.5151 15.7498C35.8189 15.5899 36.182 15.5899 36.4857 15.7498L40.4769 17.8513C41.0945 18.1765 41.8144 17.6438 41.6838 16.9581L40.8578 12.6205C40.7868 12.2476 40.9242 11.8656 41.2165 11.6235L44.3741 9.00747C44.9285 8.54814 44.6788 7.64929 43.9669 7.54177L39.7283 6.90158C39.4158 6.85437 39.1416 6.6678 38.9829 6.3944L36.7212 2.49664Z" fill="#299764"/>
<path d="M62.7212 2.49664C62.4 1.94318 61.6008 1.94318 61.2796 2.49664L59.0179 6.39439C58.8593 6.6678 58.5851 6.85437 58.2725 6.90158L54.0339 7.54177C53.322 7.64929 53.0723 8.54813 53.6267 9.00747L56.7843 11.6235C57.0766 11.8656 57.214 12.2476 57.143 12.6205L56.317 16.9581C56.1865 17.6438 56.9063 18.1765 57.5239 17.8513L61.5151 15.7498C61.8189 15.5899 62.182 15.5899 62.4857 15.7498L66.4769 17.8513C67.0945 18.1765 67.8144 17.6438 67.6838 16.9581L66.8578 12.6205C66.7868 12.2476 66.9242 11.8656 67.2165 11.6235L70.3741 9.00747C70.9285 8.54814 70.6788 7.64929 69.9669 7.54177L65.7283 6.90158C65.4158 6.85437 65.1416 6.6678 64.9829 6.3944L62.7212 2.49664Z" fill="#299764"/>
<path d="M88.7212 2.49664C88.4 1.94318 87.6008 1.94318 87.2796 2.49664L85.0179 6.39439C84.8593 6.6678 84.5851 6.85437 84.2725 6.90158L80.0339 7.54177C79.322 7.64929 79.0723 8.54813 79.6267 9.00747L82.7843 11.6235C83.0766 11.8656 83.214 12.2476 83.143 12.6205L82.317 16.9581C82.1865 17.6438 82.9063 18.1765 83.5239 17.8513L87.5151 15.7498C87.8189 15.5899 88.182 15.5899 88.4857 15.7498L92.4769 17.8513C93.0945 18.1765 93.8144 17.6438 93.6838 16.9581L92.8578 12.6205C92.7868 12.2476 92.9242 11.8656 93.2165 11.6235L96.3741 9.00747C96.9285 8.54814 96.6788 7.64929 95.9669 7.54177L91.7283 6.90158C91.4158 6.85437 91.1416 6.6678 90.9829 6.3944L88.7212 2.49664Z" fill="#299764"/>
<path d="M114.416 2.05179C114.416 1.8357 114.243 1.64483 114.041 1.7221C113.873 1.78627 113.723 1.90616 113.621 2.08175L111.36 5.97951C111.201 6.25291 110.927 6.43949 110.614 6.48669L106.376 7.12688C105.664 7.23441 105.414 8.13325 105.969 8.59258L109.126 11.2086C109.418 11.4508 109.556 11.8327 109.485 12.2056L108.659 16.5432C108.528 17.2289 109.248 17.7617 109.866 17.4365L113.857 15.3349C113.896 15.3144 113.936 15.2965 113.977 15.2812C114.203 15.1963 114.416 15.012 114.416 14.7703V2.05179Z" fill="#299764"/>
</svg>

<svg width="124" height="20" fill="none" xmlns="http://www.w3.org/2000/svg"><path d="M10.721 2.497a.833.833 0 0 0-1.441 0L7.018 6.394c-.159.274-.433.46-.745.508l-4.24.64a.833.833 0 0 0-.406 1.465l3.157 2.617c.293.242.43.624.359.996l-.826 4.338a.833.833 0 0 0 1.207.893l3.991-2.101c.304-.16.667-.16.97 0l3.992 2.101a.833.833 0 0 0 1.207-.893l-.826-4.337a1.042 1.042 0 0 1 .358-.998l3.158-2.616a.833.833 0 0 0-.407-1.465l-4.239-.64a1.042 1.042 0 0 1-.745-.508L10.72 2.497ZM36.721 2.497a.833.833 0 0 0-1.441 0l-2.262 3.897c-.159.274-.433.46-.745.508l-4.24.64a.833.833 0 0 0-.406 1.465l3.157 2.617c.293.242.43.624.359.996l-.826 4.338a.833.833 0 0 0 1.207.893l3.991-2.101c.304-.16.667-.16.97 0l3.992 2.101a.833.833 0 0 0 1.207-.893l-.826-4.337a1.042 1.042 0 0 1 .359-.998l3.157-2.616a.833.833 0 0 0-.407-1.465l-4.239-.64a1.042 1.042 0 0 1-.745-.508L36.72 2.497ZM62.721 2.497a.833.833 0 0 0-1.441 0l-2.262 3.897c-.159.274-.433.46-.745.508l-4.24.64a.833.833 0 0 0-.406 1.465l3.157 2.617c.293.242.43.624.359.996l-.826 4.338a.833.833 0 0 0 1.207.893l3.991-2.101c.304-.16.667-.16.97 0l3.992 2.101a.833.833 0 0 0 1.207-.893l-.826-4.337a1.042 1.042 0 0 1 .358-.998l3.158-2.616a.833.833 0 0 0-.407-1.465l-4.239-.64a1.042 1.042 0 0 1-.745-.508L62.72 2.497ZM88.721 2.497a.833.833 0 0 0-1.441 0l-2.262 3.897c-.159.274-.433.46-.746.508l-4.238.64a.833.833 0 0 0-.407 1.465l3.157 2.617c.293.242.43.624.359.996l-.826 4.338a.833.833 0 0 0 1.207.893l3.991-2.101c.304-.16.667-.16.97 0l3.992 2.101a.833.833 0 0 0 1.207-.893l-.826-4.337a1.042 1.042 0 0 1 .358-.998l3.158-2.616a.833.833 0 0 0-.407-1.465l-4.239-.64a1.042 1.042 0 0 1-.745-.508L88.72 2.497ZM114.416 2.052c0-.216-.173-.407-.375-.33a.822.822 0 0 0-.42.36L111.36 5.98c-.159.273-.433.46-.746.507l-4.238.64a.833.833 0 0 0-.407 1.466l3.157 2.616c.292.242.43.624.359.997l-.826 4.337a.833.833 0 0 0 1.207.893l3.991-2.101c.039-.02.079-.039.12-.054.226-.085.439-.269.439-.51V2.05Z" fill="#299764"/></svg>
